src/assets/img/separators/separator_1.svg

<svg xmlns="http://www.w3.org/2000/svg" width="288" height="24" fill="none">
  <path fill="#F22B0C" d="M0 11h100v2H0v-2Zm188 0h100v2H188v-2Zm-50.938 8.2-1.352 2.1818c-.64 1.0182-1.423 1.1637-2.348 1.1637h-9.037c-1.707 0-1.85-.1455-2.277-1.2364-1.067-2.6909-2.917-4.8727-5.123-6.9091-.783-.7273-.925-1.1636-.925-1.4545 0-.3637.213-.5819.427-.9455 1.494-2.69091 2.562-5.89091 2.562-8.21818 0-1.45455-.143-2.47273-.143-3.054548 0-.363637.143-.581819.285-.581819.783.000001 3.415 2.472727 3.415 7.418187 0 2.18181-.711 4.14546-1.352 5.52726-.64 1.3091-.925 1.6727-.925 2.0364 0 .2909.427.6545.783 1.2363.427.8 1.85 1.0182 2.562 1.0182.284 0 4.483.2182 6.19.2182 1.068 0 1.993-.0727 2.348-.3636 1.21-.9455 1.495-1.4546 1.779-2.1819.356-.8727 1.352-1.5272 1.352-2.4 0-.9454-.498-1.8181-1.067-2.3272l-.854-.7273c-1.138-.94546-1.779-1.38182-1.779-2.03636 0-.36364.143-.65455.427-1.16364l3.273-5.23636C135.924.145454 136.706-4e-8 137.632 0l9.036 4e-7c1.708 7e-8 1.85.1454546 2.277 1.2363596.498 1.30909 1.21 2.47273 1.993 3.49091l1.352-2.10909c.64-1.01818 1.423-1.16363 2.348-1.16363h9.037c1.707 0 1.85.14545 2.277 1.23636 1.067 2.69091 2.917 4.87273 5.123 6.90909.783.7273.925 1.1636.925 1.4545 0 .3637-.213.5819-.427.9455-1.494 2.6909-2.562 5.8909-2.562 8.2182 0 1.4545.143 2.4727.143 3.0545 0 .3637-.143.5818-.285.5818-.783 0-3.415-2.4727-3.415-7.4181-.072-2.1819.711-4.1455 1.352-5.5273.64-1.3091.925-1.67274.925-2.03637 0-.29091-.427-.50909-.783-1.23637-.427-.8-1.85-1.01818-2.562-1.01818-.284 0-4.483-.21818-6.19-.21818-1.068 0-1.993.07273-2.348.36364-1.21.94545-1.495 1.45454-1.779 2.18182-.356.87272-1.352 1.52724-1.352 2.40004 0 .9454.427 1.8181 1.067 2.3272l.854.7273c1.138.9455 1.779 1.3818 1.779 2.0364 0 .3636-.143.6545-.427 1.1636l-3.273 5.2364C152.076 23.8545 151.294 24 150.368 24h-9.036c-1.708 0-1.85-.1455-2.277-1.2364-.498-1.3091-1.21-2.4727-1.993-3.5636Zm12.951-12.94545s-.071 0-.071-.07273c-.427-.8-1.851-1.01818-2.562-1.01818-.285 0-4.341-.21818-6.048-.21818-1.139 0-2.135.07272-2.491.36363-1.209.94545-1.494 1.45455-1.779 2.18182-.356.87273-1.138 1.38182-1.352 2.03636-.071.21818-.142.43637-.142.72723 0 .8.427 1.3819.996 1.8182l1.068.8728c1.209.9454 1.778 1.3818 1.778 2.0363 0 .3637-.142.6546-.427 1.1637l-.996 1.6s.071 0 .071.0727c.427.8 1.851 1.0182 2.562 1.0182.285 0 4.341.2181 6.048.2181 1.139 0 2.135-.0727 2.491-.3636 1.209-.9454 1.494-1.4545 1.779-2.1818.356-.8727 1.138-1.3818 1.352-2.0364.071-.2182.142-.4363.142-.7272 0-.8-.427-1.3819-.996-1.8182l-1.068-.8728c-1.138-.9454-1.778-1.38177-1.778-2.03632 0-.36363.142-.65454.427-1.16363l.996-1.6Z"/>
</svg>

<svg width="288" height="24" viewBox="0 0 288 24" fill="none" xmlns="http://www.w3.org/2000/svg">
<path d="M0 11H100V13H0V11Z" fill="#F22B0C"/>
<path d="M188 11H288V13H188V11Z" fill="#F22B0C"/>
<path d="M137.062 19.2L135.71 21.3818C135.07 22.4 134.287 22.5455 133.362 22.5455H124.325C122.618 22.5455 122.475 22.4 122.048 21.3091C120.981 18.6182 119.131 16.4364 116.925 14.4C116.142 13.6727 116 13.2364 116 12.9455C116 12.5818 116.213 12.3636 116.427 12C117.921 9.30909 118.989 6.10909 118.989 3.78182C118.989 2.32727 118.846 1.30909 118.846 0.727272C118.846 0.363635 118.989 0.145453 119.131 0.145453C119.914 0.145454 122.546 2.61818 122.546 7.56364C122.546 9.74545 121.835 11.7091 121.194 13.0909C120.554 14.4 120.269 14.7636 120.269 15.1273C120.269 15.4182 120.696 15.7818 121.052 16.3636C121.479 17.1636 122.902 17.3818 123.614 17.3818C123.898 17.3818 128.097 17.6 129.804 17.6C130.872 17.6 131.797 17.5273 132.152 17.2364C133.362 16.2909 133.647 15.7818 133.931 15.0545C134.287 14.1818 135.283 13.5273 135.283 12.6545C135.283 11.7091 134.785 10.8364 134.216 10.3273L133.362 9.6C132.224 8.65454 131.583 8.21818 131.583 7.56364C131.583 7.2 131.726 6.90909 132.01 6.4L135.283 1.16364C135.924 0.145454 136.706 -4.04344e-08 137.632 0L146.668 3.95013e-07C148.376 4.69661e-07 148.518 0.145455 148.945 1.23636C149.443 2.54545 150.155 3.70909 150.938 4.72727L152.29 2.61818C152.93 1.6 153.713 1.45455 154.638 1.45455L163.675 1.45455C165.382 1.45455 165.525 1.6 165.952 2.69091C167.019 5.38182 168.869 7.56364 171.075 9.6C171.858 10.3273 172 10.7636 172 11.0545C172 11.4182 171.787 11.6364 171.573 12C170.079 14.6909 169.011 17.8909 169.011 20.2182C169.011 21.6727 169.154 22.6909 169.154 23.2727C169.154 23.6364 169.011 23.8545 168.869 23.8545C168.086 23.8545 165.454 21.3818 165.454 16.4364C165.382 14.2545 166.165 12.2909 166.806 10.9091C167.446 9.6 167.731 9.23636 167.731 8.87273C167.731 8.58182 167.304 8.36364 166.948 7.63636C166.521 6.83636 165.098 6.61818 164.386 6.61818C164.102 6.61818 159.903 6.4 158.196 6.4C157.128 6.4 156.203 6.47273 155.848 6.76364C154.638 7.70909 154.353 8.21818 154.069 8.94546C153.713 9.81818 152.717 10.4727 152.717 11.3455C152.717 12.2909 153.144 13.1636 153.784 13.6727L154.638 14.4C155.776 15.3455 156.417 15.7818 156.417 16.4364C156.417 16.8 156.274 17.0909 155.99 17.6L152.717 22.8364C152.076 23.8545 151.294 24 150.368 24H141.332C139.624 24 139.482 23.8545 139.055 22.7636C138.557 21.4545 137.845 20.2909 137.062 19.2ZM150.013 6.25455C150.013 6.25455 149.942 6.25455 149.942 6.18182C149.515 5.38182 148.091 5.16364 147.38 5.16364C147.095 5.16364 143.039 4.94546 141.332 4.94546C140.193 4.94546 139.197 5.01818 138.841 5.30909C137.632 6.25454 137.347 6.76364 137.062 7.49091C136.706 8.36364 135.924 8.87273 135.71 9.52727C135.639 9.74545 135.568 9.96364 135.568 10.2545C135.568 11.0545 135.995 11.6364 136.564 12.0727L137.632 12.9455C138.841 13.8909 139.41 14.3273 139.41 14.9818C139.41 15.3455 139.268 15.6364 138.983 16.1455L137.987 17.7455C137.987 17.7455 138.058 17.7455 138.058 17.8182C138.485 18.6182 139.909 18.8364 140.62 18.8364C140.905 18.8364 144.961 19.0545 146.668 19.0545C147.807 19.0545 148.803 18.9818 149.159 18.6909C150.368 17.7455 150.653 17.2364 150.938 16.5091C151.294 15.6364 152.076 15.1273 152.29 14.4727C152.361 14.2545 152.432 14.0364 152.432 13.7455C152.432 12.9455 152.005 12.3636 151.436 11.9273L150.368 11.0545C149.23 10.1091 148.59 9.67273 148.59 9.01818C148.59 8.65455 148.732 8.36364 149.017 7.85455L150.013 6.25455Z" fill="#F22B0C"/>
</svg>
